svgs/thin/building-columns.svg

<svg xmlns="http://www.w3.org/2000/svg" viewBox="0 0 512 512"><!--! Font Awesome Pro 6.6.0 by @fontawesome - https://fontawesome.com License - https://fontawesome.com/license (Commercial License) Copyright 2024 Fonticons, Inc. --><path d="M252.7 .7c2.1-.9 4.5-.9 6.6 0L497.9 108.5c8.6 3.9 14.1 12.4 14.1 21.9l0 5.7c0 13.3-10.7 24-24 24l-232 0L24 160c-13.3 0-24-10.7-24-24l0-5.7c0-9.4 5.5-18 14.1-21.9L252.7 .7zM288 144l200 0c4.4 0 8-3.6 8-8l0-5.7c0-3.1-1.8-6-4.7-7.3L256 16.8 20.7 123c-2.9 1.3-4.7 4.1-4.7 7.3l0 5.7c0 4.4 3.6 8 8 8l200 0c-5-6.7-8-15-8-24c0-22.1 17.9-40 40-40s40 17.9 40 40c0 9-3 17.3-8 24zm-32 0a24 24 0 1 0 0-48 24 24 0 1 0 0 48zM72 192c4.4 0 8 3.6 8 8l0 168 104 0 0-168c0-4.4 3.6-8 8-8s8 3.6 8 8l0 168 112 0 0-168c0-4.4 3.6-8 8-8s8 3.6 8 8l0 168 104 0 0-168c0-4.4 3.6-8 8-8s8 3.6 8 8l0 176c0 4.4-3.6 8-8 8L72 384c-4.4 0-8-3.6-8-8l0-176c0-4.4 3.6-8 8-8zM32 440c0-4.4 3.6-8 8-8l432 0c4.4 0 8 3.6 8 8s-3.6 8-8 8L40 448c-4.4 0-8-3.6-8-8zM0 504c0-4.4 3.6-8 8-8l496 0c4.4 0 8 3.6 8 8s-3.6 8-8 8L8 512c-4.4 0-8-3.6-8-8z"/></svg>

<svg xmlns="http://www.w3.org/2000/svg" viewBox="0 0 512 512"><!--! Font Awesome Pro 6.4.0 by @fontawesome - https://fontawesome.com License - https://fontawesome.com/license (Commercial License) Copyright 2023 Fonticons, Inc. --><path d="M252.7 .7c2.1-.9 4.5-.9 6.6 0L497.9 108.5c8.6 3.9 14.1 12.4 14.1 21.9V136c0 13.3-10.7 24-24 24H256 24c-13.3 0-24-10.7-24-24v-5.7c0-9.4 5.5-18 14.1-21.9L252.7 .7zM288 144H488c4.4 0 8-3.6 8-8v-5.7c0-3.1-1.8-6-4.7-7.3L256 16.8 20.7 123c-2.9 1.3-4.7 4.1-4.7 7.3V136c0 4.4 3.6 8 8 8H224c-5-6.7-8-15-8-24c0-22.1 17.9-40 40-40s40 17.9 40 40c0 9-3 17.3-8 24zm-32 0a24 24 0 1 0 0-48 24 24 0 1 0 0 48zM72 192c4.4 0 8 3.6 8 8V368H184V200c0-4.4 3.6-8 8-8s8 3.6 8 8V368H312V200c0-4.4 3.6-8 8-8s8 3.6 8 8V368H432V200c0-4.4 3.6-8 8-8s8 3.6 8 8V376c0 4.4-3.6 8-8 8H72c-4.4 0-8-3.6-8-8V200c0-4.4 3.6-8 8-8zM32 440c0-4.4 3.6-8 8-8H472c4.4 0 8 3.6 8 8s-3.6 8-8 8H40c-4.4 0-8-3.6-8-8zM0 504c0-4.4 3.6-8 8-8H504c4.4 0 8 3.6 8 8s-3.6 8-8 8H8c-4.4 0-8-3.6-8-8z"/></svg>
